48x48/scalable/starred-symbolic.svg

<svg height="16" viewBox="0 0 16 16" width="16" xmlns="http://www.w3.org/2000/svg"><path d="m8 .314 1.947 5.733 6.053.08-4.85 3.622 1.794 5.782-4.944-3.493-4.944 3.492 1.794-5.78-4.85-3.623 6.053-.08z" fill="#eae5fe" opacity=".6" stroke-opacity=".344" stroke-width="1.311"/><path d="m8 .314-.225.66-1.722 5.073-6.053.08 4.85 3.623-1.793 5.781 4.943-3.494 4.943 3.494-1.793-5.781 4.85-3.623-6.053-.08zm0 2.996 1.217 3.58 3.783.05-3.031 2.266 1.122 3.614-3.091-2.185-3.09 2.185 1.12-3.614-3.03-2.266 3.783-.05z" fill="#fff" stroke-width=".034"/></svg>

<svg height="16" width="16" xmlns="http://www.w3.org/2000/svg">
    <path d="m8 .314 1.947 5.733 6.053.08-4.85 3.622 1.794 5.782L8 12.038 3.056 15.53 4.85 9.75 0 6.127l6.053-.08z" fill="#eae5fe" opacity=".6"/>
    <path d="m8 .314-.225.66-1.722 5.073L0 6.127 4.85 9.75l-1.793 5.781L8 12.037l4.943 3.494L11.15 9.75 16 6.127l-6.053-.08zM8 3.31l1.217 3.58L13 6.94 9.969 9.206l1.122 3.614L8 10.635 4.91 12.82l1.12-3.614L3 6.94l3.783-.05z" fill="#fff"/>
</svg>
